X: 7408
T:Martins Begravning
R:Sl\"angpolska
O:Sweden
M:3/4
L:1/16
K:G
D2|\
G3A B2Bc B2G2|BABc d2de d2B2|\
d2ef [g2B2]z2 d3c|"tr"B2AG A6:|
|:\
D2|\
B2BB BAAA A2A2|B2BB BdcB A2A2|\
"tr"B2AB cdcA B3d|dcAF G6:|
